assets/spark/icons/WarningFill.svg

<svg viewBox="0 0 24 24" xmlns="http://www.w3.org/2000/svg">
<path fill-rule="evenodd" clip-rule="evenodd" d="M11.9999 2C11.5609 2 11.1305 2.12115 10.7559 2.35011C10.3813 2.57907 10.0772 2.90694 9.87702 3.29765L2.25516 18.5414L2.25437 18.543C2.07194 18.9057 1.9851 19.3089 2.00209 19.7146C2.01911 20.1208 2.13969 20.516 2.35239 20.8625C2.56509 21.209 2.86284 21.4955 3.21737 21.6945C3.5719 21.8936 3.97143 21.9988 4.37803 22L4.38106 22H19.6188L19.6218 22C20.0284 21.9988 20.428 21.8936 20.7825 21.6945C21.137 21.4955 21.4348 21.209 21.6475 20.8625C21.8602 20.516 21.9808 20.1208 21.9978 19.7146C22.0148 19.309 21.928 18.9059 21.7457 18.5433L21.7447 18.5414L14.1273 3.3064L14.1228 3.29767C13.9226 2.90696 13.6185 2.57907 13.244 2.35011C12.8694 2.12115 12.4389 2 11.9999 2ZM12 8.22537C12.5523 8.22537 13 8.67309 13 9.22537V13.8087C13 14.361 12.5523 14.8087 12 14.8087C11.4477 14.8087 11 14.361 11 13.8087V9.22537C11 8.67309 11.4477 8.22537 12 8.22537ZM13.25 16.8073C13.25 17.4976 12.6904 18.0573 12 18.0573C11.3096 18.0573 10.75 17.4976 10.75 16.8073C10.75 16.1169 11.3096 15.5573 12 15.5573C12.6904 15.5573 13.25 16.1169 13.25 16.8073Z"/>
</svg>

<svg viewBox="0 0 24 24" xmlns="http://www.w3.org/2000/svg">
  <path d="m12,2c-.44,0-.87.12-1.24.35-.37.23-.68.56-.88.95l-7.62,15.24h0c-.18.36-.27.77-.25,1.17.02.41.14.8.35,1.15.21.35.51.63.86.83.35.2.75.3,1.16.31h15.24c.41,0,.81-.11,1.16-.31.35-.2.65-.49.86-.83.21-.35.33-.74.35-1.15.02-.41-.07-.81-.25-1.17h0S14.13,3.31,14.13,3.31h0c-.2-.4-.5-.73-.88-.96-.37-.23-.81-.35-1.24-.35Zm0,6.23c.55,0,1,.45,1,1v4.58c0,.55-.45,1-1,1s-1-.45-1-1v-4.58c0-.55.45-1,1-1Zm1.25,8.58c0,.69-.56,1.25-1.25,1.25s-1.25-.56-1.25-1.25.56-1.25,1.25-1.25,1.25.56,1.25,1.25Z"/>
</svg>
